X:1
T:Redeemed
T:Redeemed
T:James McGranahan
T:Daniel Webster Whittle, 1881
T:Public Domain Courtesy of the Cyber Hymnal™
T:Public Domain Courtesy of the Cyber Hymnal™
C:James McGranahan
Z:Public Domain
Z:Courtesy of the Cyber Hymnal™
%%score ( 1 2 ) ( 3 4 )
L:1/8
Q:1/4=110
M:4/4
K:Bb
V:1 treble 
V:2 treble 
V:3 bass 
V:4 bass 
V:1
 ([B,D][CE]) | [DF]6 [EG]2 | [DF]6 ([B,D][CE]) | [DF]2 [DB]2 [FA]2 [EG]2 | [DF]6 [DF]2 | %5
w: 1.~“Re- *|deemed!” “re-|deemed!” Oh, *|sing the joy- ful|strain! Give|
w: 2.~“What *|grace!” “what|grace!” That *|He who calmed the|wave, Should|
w: 3.~“Re- *|deemed!” “re-|deemed!” The *|word has brought re-|pose, And|
w: 4.~“Re- *|deemed!” “re-|deemed!” O *|joy, that I should|be In|
 [EG]6 [DF]2 | [EG]6 [EA]2 | [DB]2 [FB]2 [EA]2 [DB]2 | [Fc]6 F2 | [Fd]2 [Fd]2 [Ge]2 [Fd]2 | %10
w: praise; give|praise and|glo- ry to His|name; Who|gave His blood our|
w: stoop, my|soul, my|guil- ty soul to|save! That|He the curse should|
w: joy, and|joy, that|each re- deemed one|knows, Who|sees his sins on|
w: Christ, in|Christ, from|sin for- ev- er|free! For-|ev- er free to|
 [Fd]2 [Ec]2 [Ec]2 [EF]2 | [Ec]2 [Ec]2 [Fd]2 [Ec]2 | [Ec]2 [DB]2 [DB]2 [DF]2 | [FB]4 [Fc]4 | %14
w: souls to save, And|pur- chased free- dom|for the slave! And|pur- chased|
w: bear for me, A|sin- ful wretch, His|en- e- my! A|sin- ful|
w: Je- sus laid, And|knows His blood the|ran- som paid, And|knows His|
w: praise His name, Who|bore for me the|guilt and shame, Who|bore for|
 d4 ([Ge]2 [Ec]2) | [DB]4 A4 | [DB]6 ||"^Refrain" F2 | [DB]6 F2 | [DB]6 F2 | %20
w: free- dom *|for the|slave!||||
w: wretch, His *|en- e-|my!|“Re-|deemed!” “re-|deemed!” from|
w: blood the *|ran- som|paid.||||
w: me the *|guilt and|shame.||||
 [DB]2 [EA]2 [FB]2 [DF]2 | [EG]6 [EG]2 | [=Ec]6 [EG]2 | [=Ec]6 [EG]2 | [=Ec]2 [F=B]2 [Gc]2 [EG]2 | %25
w: |||||
w: sin and all its|woe! “Re-|deemed!” “re-|deemed!” e-|ter- nal life to|
w: |||||
w: |||||
 [FA]6 A2 | ([Bd]3 [Ac] [GB]2) [^FA]2 | (B3 A [CG]2) [DA]2 | [DB]4 [Gc]4 | [^Fd]6 [=F=f]2 | %30
w: |||||
w: know! “Re-|deemed!” * * “re-|deemed!” * * by|Je- sus’|blood, “Re-|
w: |||||
w: |||||
 ([Bf]3 [Be] [Bd]2) [ce]2 | ([Bd]3 [Fc] [FB]2) [Ge]2 | ([Fd]2 [Ge][Ec] [DB]2) A2 | [DB]6 |] %34
w: ||||
w: deemed!” * * “re-|deemed!” * * Oh,|praise * * * the|Lord!|
w: ||||
w: ||||
V:2
 x2 | x8 | x8 | x8 | x8 | x8 | x8 | x8 | x6 F2 | x8 | x8 | x8 | x8 | x8 | (F2 _A2) x4 | %15
 x4 (C2 E2) | x6 || F2 | x6 F2 | x6 F2 | x8 | x8 | x8 | x8 | x8 | x6 A2 | x8 | G4 x4 | x8 | x8 | %30
 x8 | x8 | x6 (CE) | x6 |] %34
V:3
 z2 | z2 ([B,,B,]2 [B,,B,]2) z2 | z2 ([B,,B,]2 [B,,B,]2) [B,,F,]2 | %3
 [B,,B,]2 [B,,F,]2 [B,,F,]2 [B,,B,]2 | [B,,B,]6 z2 | z2 ([E,B,]2 [E,B,]2) z2 | %6
 z2 ([E,B,]2 [E,B,]2) [C,F,]2 | [B,,F,]2 [D,B,]2 [C,F,]2 [B,,B,]2 | [F,A,]6 [F,A,]2 | %9
 [B,,B,]2 [B,,B,]2 [B,,B,]2 [B,,B,]2 | [F,B,]2 [F,A,]2 [F,A,]2 [F,A,]2 | %11
 [F,A,]2 [F,A,]2 [F,A,]2 [F,A,]2 | [B,,B,]2 [B,,F,]2 [B,,F,]2 [B,,B,]2 | %13
 ([D,B,]2 [D,B,]2) ([F,A,]2 [F,A,]2) | B,2 B,2 ([E,B,]2 [E,B,]2) | [F,B,]4 F,4 | [B,,F,]6 || F,2 | %18
 [B,,F,]6 F,2 | [B,,F,]6 F,2 | [B,,F,]2 [C,F,]2 [D,B,]2 [B,,B,]2 | [E,B,]6 [E,B,]2 | %22
 [C,G,B,]6 [C,C]2 | [C,G,]6 [C,C]2 | [C,G,]2 [D,G,]2 [=E,C]2 [C,C]2 | [F,C]6 (DC) | %26
 (B,3 C D2) [D,D]2 | (D3 C B,2) (DC) | [G,B,]4 [E,G,]4 | [D,A,]6 [C,A,]2 | (D3 C B,2) [A,,F]2 | %31
 ([B,,F]3 [C,E] [D,D]2) [E,B,]2 | (B,2 A,2 B,2) F,2 | [B,,F,]6 |] %34
V:4
 x2 | x8 | x8 | x8 | x8 | x8 | x8 | x8 | x8 | x8 | x8 | x8 | x8 | x8 | (B,2 B,2) x4 | x4 F,4 | %16
 x6 || F,2 | x6 F,2 | x6 F,2 | x8 | x8 | x8 | x8 | x8 | x6 ^F,2 | G,6 x2 | G,6 [^F,A,]2 | x8 | x8 | %30
 B,,6 x2 | x8 | F,4 F,4 | x6 |] %34

